X:1
T:Universal Soldier
M:4/4
L:1/4
K:A
 E| A2 A2| G2 F F| E2 C- B,| A,2 z E| A3 A| G/2 G3/2 F F| E4-| E z z E|\
 A A G/2 A3/2| G2 F F| E E D C| A,2 A,15.9999925000037/23.999988000006 C15.9999925000037/23.999988000006 E15.9999925000037/23.999988000006|\
 F2 F E/2E/2| D2 C2| B,4-| B, z2||
